!!!!SEGMENT: pl-sa--240-a-vi-44--002_sacchini-antonio--symphonia-toni-d-andante.krn
!!!id: 17xx:660
!!!COM: Sacchini, Antonio
!!!COM-rism: pe30002777
!!!CDT: 1730/06/14-1786/10/06
!!!CNT: Italian
!!!OTL: Symphonia toni D – Andante
!!!PDT:
!!!SMS-siglum: PL-SA
!!!SMS-shelfmark: 240/A VI 44
!!!NIFC-rismID: 1001035313
!!!URL-scan: http://bc.bdsandomierz.pl/dlibra/publication/1592/edition/1560/content
!!!ONB-nifc: UWAGA: części Symphonii: Allegro spirituoso, Andante, Allegro
!!!SMS-variant:
!!!SMS-altvar:
**kern	**dynam	**kern	**dynam	**kern	**dynam	**kern	**dynam	**kern	**kern	**kern	**kern
*part8	*part8	*part7	*part7	*part6	*part6	*part5	*part5	*part4	*part3	*part2	*part1
*	*	*group3	*	*group3	*	*group3	*	*group2	*group2	*group1	*group1
*staff8	*	*staff7	*	*staff6	*	*staff5	*	*staff4	*staff3	*staff2	*staff1
*I"Fundamento	*	*I"Viola obligata	*	*I"Violino Secundo	*	*I"Violino Primo	*	*I"Cornu Secondo ex D	*I"Corno Primo.	*I"Oboi 2da	*I"Oboi 1ma
*I'org	*	*I'vla	*	*I'vl II	*	*I'vl I	*	*I'cor II	*I'cor I	*I'ob II	*I'ob I
*clefF4	*	*clefC3	*	*clefG2	*	*clefG2	*	*clefG2	*clefG2	*clefG2	*clefG2
*ITrd0c0	*	*	*	*	*	*	*	*ITrd6c10	*ITrd6c10	*	*
*k[f#c#g#]	*	*k[f#c#g#]	*	*k[f#c#g#]	*	*k[f#c#g#]	*	*k[f#c#g#]	*k[f#c#g#]	*k[f#c#g#]	*k[f#c#g#]
*M2/4	*	*M2/4	*	*M2/4	*	*M2/4	*	*M2/4	*M2/4	*M2/4	*M2/4
=1	=1	=1	=1	=1	=1	=1	=1	=1	=1	=1	=1
!	!	!	!	!LO:TX:a:t=P:problem:kolejność znaków gg# ff# cc#	!	!LO:TX:a:t=P:problem:kolejność znaków gg# ff# cc#	!	!	!	!	!
!LO:TX:a:i:t=Andante	!	!LO:TX:a:i:t=Andante	!	!LO:TX:a:i:t=andantino con moto	!	!LO:TX:a:i:t=andantino con moto	!	!LO:TX:a:i:t=Andante Tacett Allo Verte.	!LO:TX:a:i:t=Andante Tacett Allo Verte	!LO:TX:a:i:t=Andante Tacet	!LO:TX:a:i:t=Andantino Tacett
!	!LO:DY:t=pn	!	!LO:DY:t=pn	!LO:TX:a:t=|:problem	!	!LO:TX:a:t=|:problem	!	!	!	!	!
8A\	p	8a\	p	16ee\LL	p	16ee\LL	p	2ryy	2ryy	2ryy	2ryy
!	!	!	!	!LO:TX:a:t=|:problem	!	!LO:TX:a:t=|:problem	!	!	!	!	!
.	.	.	.	16cc#\	.	16cc#\	.	.	.	.	.
!	!	!	!	!LO:TX:a:t=|:problem	!	!LO:TX:a:t=|:problem	!	!	!	!	!
8r	.	8r	.	16aa\	.	16aa\	.	.	.	.	.
!	!	!	!	!LO:TX:a:t=|:problem	!	!LO:TX:a:t=|:problem	!	!	!	!	!
.	.	.	.	16gg#\JJ	.	16gg#\JJ	.	.	.	.	.
!	!	!	!	!LO:TX:a:t=|:problem	!	!LO:TX:a:t=|:problem	!	!	!	!	!
8A\	.	8a\	.	16ff#\LL	.	16ff#\LL	.	.	.	.	.
!	!	!	!	!LO:TX:a:t=|:problem	!	!LO:TX:a:t=|:problem	!	!	!	!	!
.	.	.	.	16ee\	.	16ee\	.	.	.	.	.
!	!	!	!	!LO:TX:a:t=|:problem	!	!LO:TX:a:t=|:problem	!	!	!	!	!
8r	.	8r	.	16dd\	.	16dd\	.	.	.	.	.
!	!	!	!	!LO:TX:a:t=|:problem	!	!LO:TX:a:t=|:problem	!	!	!	!	!
.	.	.	.	16cc#\JJ	.	16cc#\JJ	.	.	.	.	.
=2	=2	=2	=2	=2	=2	=2	=2	=2	=2	=2	=2
!	!LO:DY:t=fro	!	!LO:DY:t=for	!	!	!	!	!	!	!	!
8B\L	f	8b\L	f	16.dd\LL	f	16.dd\LL	f	2ryy	2ryy	2ryy	2ryy
.	.	.	.	32cc#\K	.	32cc#\K	.	.	.	.	.
8B\J	.	8b\J	.	16.dd\	.	16.dd\	.	.	.	.	.
.	.	.	.	32cc#\JJk	.	32cc#\JJk	.	.	.	.	.
8B\	.	8b\	.	8dd\	.	8dd\	.	.	.	.	.
8r	.	8r	.	8r	.	8r	.	.	.	.	.
=3	=3	=3	=3	=3	=3	=3	=3	=3	=3	=3	=3
!	!LO:DY:t=pn	!	!LO:DY:t=pn	!LO:TX:a:t=|:problem	!	!LO:TX:a:t=|:problem	!	!	!	!	!
8G#\	p	8g#\	p	16dd\LL	p	16dd\LL	p	2ryy	2ryy	2ryy	2ryy
!	!	!	!	!LO:TX:a:t=|:problem	!	!LO:TX:a:t=|:problem	!	!	!	!	!
.	.	.	.	16b\	.	16b\	.	.	.	.	.
!	!	!	!	!LO:TX:a:t=|:problem	!	!LO:TX:a:t=|:problem	!	!	!	!	!
8r	.	8r	.	16bb\	.	16bb\	.	.	.	.	.
!	!	!	!	!LO:TX:a:t=|:problem	!	!LO:TX:a:t=|:problem	!	!	!	!	!
.	.	.	.	16aa\JJ	.	16aa\JJ	.	.	.	.	.
!	!	!	!	!LO:TX:a:t=|:problem	!	!LO:TX:a:t=|:problem	!	!	!	!	!
8G#\	.	8g#\	.	16gg#\LL	.	16gg#\LL	.	.	.	.	.
!	!	!	!	!LO:TX:a:t=|:problem	!	!LO:TX:a:t=|:problem	!	!	!	!	!
.	.	.	.	16ff#\	.	16ff#\	.	.	.	.	.
!	!	!	!	!LO:TX:a:t=|:problem	!	!LO:TX:a:t=|:problem	!	!	!	!	!
8r	.	8r	.	16ee\	.	16ee\	.	.	.	.	.
!	!	!	!	!LO:TX:a:t=|:problem	!	!LO:TX:a:t=|:problem	!	!	!	!	!
.	.	.	.	16dd\JJ	.	16dd\JJ	.	.	.	.	.
=4	=4	=4	=4	=4	=4	=4	=4	=4	=4	=4	=4
!	!LO:DY:t=for	!	!LO:DY:t=for	!	!	!	!	!	!	!	!
8A\L	f	8a\L	f	16.cc#\LL	f	16.cc#\LL	f	2ryy	2ryy	2ryy	2ryy
.	.	.	.	32b#X\K	.	32b\K	.	.	.	.	.
8A\J	.	8a\	.	16.cc#\	.	16.cc#\	.	.	.	.	.
.	.	.	.	32b#\JJk	.	32b\JJk	.	.	.	.	.
8A\	.	8a\J	.	8cc#\	.	8cc#\	.	.	.	.	.
8r	.	8r	.	8r	.	8r	.	.	.	.	.
=5	=5	=5	=5	=5	=5	=5	=5	=5	=5	=5	=5
!	!LO:DY:t=pn	!	!LO:DY:rj	!LO:TX:a:t=|:problem	!	!LO:TX:a:t=|:problem	!	!	!	!	!
8C#/	p	8c#\	p	16ee\LL	p	16ee\LL	p	2ryy	2ryy	2ryy	2ryy
!	!	!	!	!LO:TX:a:t=|:problem	!	!LO:TX:a:t=|:problem	!	!	!	!	!
.	.	.	.	16cc#\	.	16cc#\	.	.	.	.	.
!	!	!	!	!LO:TX:a:t=|:problem	!	!LO:TX:a:t=|:problem	!	!	!	!	!
8r	.	8r	.	16aa\	.	16aa\	.	.	.	.	.
!	!	!	!	!LO:TX:a:t=|:problem	!	!LO:TX:a:t=|:problem	!	!	!	!	!
.	.	.	.	16gg#\JJ	.	16gg#\JJ	.	.	.	.	.
!	!	!	!	!LO:TX:a:t=|:problem	!	!LO:TX:a:t=|:problem	!	!	!	!	!
8C#/	.	8c#\	.	16ff#\LL	.	16ff#\LL	.	.	.	.	.
!	!	!	!	!LO:TX:a:t=|:problem	!	!LO:TX:a:t=|:problem	!	!	!	!	!
.	.	.	.	16ee\	.	16ee\	.	.	.	.	.
!	!	!	!	!LO:TX:a:t=|:problem	!	!LO:TX:a:t=|:problem	!	!	!	!	!
8r	.	8r	.	16dd\	.	16dd\	.	.	.	.	.
!	!	!	!	!LO:TX:a:t=|:problem	!	!LO:TX:a:t=|:problem	!	!	!	!	!
.	.	.	.	16cc#\JJ	.	16cc#\JJ	.	.	.	.	.
=6	=6	=6	=6	=6	=6	=6	=6	=6	=6	=6	=6
8D\	.	8f#\	.	(16cc#\LL	.	(16cc#\LL	.	2ryy	2ryy	2ryy	2ryy
.	.	.	.	16b\	.	16b\	.	.	.	.	.
8r	.	8r	.	16a#X\	.	16a#X\	.	.	.	.	.
.	.	.	.	16b\JJ)	.	16b\JJ)	.	.	.	.	.
.	.	8qqg#/	.	8qqee/	.	8qqee/	.	.	.	.	.
8D\	.	8f#\L	.	8dd\L	.	(8dd\L	.	.	.	.	.
8r	.	16e\L	.	16cc#\L	.	16cc#\L	.	.	.	.	.
.	.	16d\JJ	.	16b\JJ	.	16b\JJ)	.	.	.	.	.
=7	=7	=7	=7	=7	=7	=7	=7	=7	=7	=7	=7
8E\	.	8e\	.	(16cc#\LL	.	(16cc#\LL	.	2ryy	2ryy	2ryy	2ryy
.	.	.	.	16dd\	.	16dd\	.	.	.	.	.
8r	.	8r	.	16ee\	.	16ee\	.	.	.	.	.
.	.	.	.	16a\JJ)	.	16a\JJ)	.	.	.	.	.
.	.	8qqe/	.	8qqcc#/	.	8qqcc#/	.	.	.	.	.
8EE/	.	8d\L	.	8b\L	.	(8b/L	.	.	.	.	.
8r	.	16c#\L	.	16a\L	.	16a/L	.	.	.	.	.
.	.	16B\JJ	.	16g#\JJ	.	16g#/JJ)	.	.	.	.	.
!	!	!	!	!	!	!LO:LB:g=original	!	!	!	!	!
=8	=8	=8	=8	=8	=8	=8	=8	=8	=8	=8	=8
!	!LO:DY:rj	!	!LO:DY:rj:t=for	!	!	!	!	!	!	!	!
8AA/L	f	16.A/LL	f	16.a/LL	f	16.a/LL	f	2ryy	2ryy	2ryy	2ryy
.	.	32G#/K	.	32g#/K	.	32g#/K	.	.	.	.	.
8AA/J	.	16.A/	.	16.a/	.	16.a/	.	.	.	.	.
.	.	(32G#/JJk	.	32g#/JJk	.	32g#/JJk	.	.	.	.	.
8AA/	.	8A/)	.	8a/	.	8a/	.	.	.	.	.
8r	.	8r	.	8r	.	8r	.	.	.	.	.
!	!	!LO:LB:g=original	!	!	!	!	!	!	!	!	!
=9	=9	=9	=9	=9	=9	=9	=9	=9	=9	=9	=9
!	!LO:DY:t=pn	!	!LO:DY:t=pn	!LO:TX:a:t=|:problem	!	!LO:TX:a:t=|:problem	!	!	!	!	!
8A\	p	8c#/	p	16ee\LL	.	16ee\LL	p	2ryy	2ryy	2ryy	2ryy
!	!	!	!	!LO:TX:a:t=|:problem	!	!LO:TX:a:t=|:problem	!	!	!	!	!
.	.	.	.	16cc#\	.	16cc#\	.	.	.	.	.
!	!	!	!	!LO:TX:a:t=|:problem	!	!LO:TX:a:t=|:problem	!	!	!	!	!
8r	.	8r	.	16aa\	.	16aa\	.	.	.	.	.
!	!	!	!	!LO:TX:a:t=|:problem	!	!LO:TX:a:t=|:problem	!	!	!	!	!
.	.	.	.	16aa\JJ	.	16aa\JJ	.	.	.	.	.
!	!	!	!	!LO:TX:a:t=|:problem	!	!LO:TX:a:t=|:problem	!	!	!	!	!
8A\	.	8c#/	.	16aa\LL	.	16aa\LL	.	.	.	.	.
!	!	!	!	!LO:TX:a:t=|:problem	!	!LO:TX:a:t=|:problem	!	!	!	!	!
.	.	.	.	16gg#\	.	16gg#\	.	.	.	.	.
!	!	!	!	!LO:TX:a:t=|:problem	!	!LO:TX:a:t=|:problem	!	!	!	!	!
8r	.	8r	.	16ff#\	.	16ff#\	.	.	.	.	.
!	!	!	!	!LO:TX:a:t=|:problem	!	!LO:TX:a:t=|:problem	!	!	!	!	!
.	.	.	.	16ee\JJ	.	16ee\JJ	.	.	.	.	.
!	!	!	!	!LO:LB:g=original	!	!	!	!	!	!	!
=10	=10	=10	=10	=10-	=10	=10	=10	=10	=10	=10	=10
!	!	!	!LO:DY:t=for	!	!LO:DY:rj	!	!	!	!	!	!
8A\L	.	8B/L	f	16.dd#X\LL	f	16.dd#X\LL	f	2ryy	2ryy	2ryy	2ryy
.	.	.	.	32ee\K	.	32ee\K	.	.	.	.	.
8A\J	.	8B/	.	16.ff#\	.	16.ff#\	.	.	.	.	.
.	.	.	.	32ee\JJk	.	32ee\JJk	.	.	.	.	.
!LO:LB:g=original	!	!	!	!	!	!	!	!	!	!	!
8A\	.	8B/J	.	8dd#\	.	8dd#\	.	.	.	.	.
8r	.	8r	.	8r	.	8r	.	.	.	.	.
=11	=11	=11	=11	=11	=11	=11	=11	=11	=11	=11	=11
!	!	!	!LO:DY:t=pn	!LO:TX:a:t=|:problem	!	!LO:TX:a:t=|:problem	!	!	!	!	!
8A\	.	8B/	p	16dd\LL	p	16dd\LL	p	2ryy	2ryy	2ryy	2ryy
!	!	!	!	!LO:TX:a:t=|:problem	!	!LO:TX:a:t=|:problem	!	!	!	!	!
.	.	.	.	16b\	.	16b\	.	.	.	.	.
!	!	!	!	!LO:TX:a:t=|:problem	!	!LO:TX:a:t=|:problem	!	!	!	!	!
8r	.	8r	.	16aa\	.	16aa\	.	.	.	.	.
!	!	!	!	!LO:TX:a:t=|:problem	!	!LO:TX:a:t=|:problem	!	!	!	!	!
.	.	.	.	16aa\JJ	.	16aa\JJ	.	.	.	.	.
!	!	!	!	!LO:TX:a:t=|:problem	!	!LO:TX:a:t=|:problem	!	!	!	!	!
8A\	.	8B/	.	16aa\LL	.	16aa\LL	.	.	.	.	.
!	!	!	!	!LO:TX:a:t=|:problem	!	!LO:TX:a:t=|:problem	!	!	!	!	!
.	.	.	.	16ff#\	.	16ff#\	.	.	.	.	.
!	!	!	!	!LO:TX:a:t=|:problem	!	!LO:TX:a:t=|:problem	!	!	!	!	!
8r	.	8r	.	16ee\	.	16ee\	.	.	.	.	.
!	!	!	!	!LO:TX:a:t=|:problem	!	!LO:TX:a:t=|:problem	!	!	!	!	!
.	.	.	.	16dd#\JJ	.	16dd#X\JJ	.	.	.	.	.
=12	=12	=12	=12	=12	=12	=12	=12	=12	=12	=12	=12
!	!	!	!LO:DY:t=for	!	!	!	!	!	!	!	!
8G#\L	.	8B/L	f	16.ee\LL	f	16.ee\LL	f	2ryy	2ryy	2ryy	2ryy
.	.	.	.	32ff#\K	.	32ff#\K	.	.	.	.	.
8G#\J	.	8B/	.	16.gg#\	.	16.gg#\	.	.	.	.	.
.	.	.	.	32ff#\JJk	.	32ff#\JJk	.	.	.	.	.
8G#\	.	8B/J	.	8ee\	.	8ee\	.	.	.	.	.
8r	.	8r	.	8r	.	8r	.	.	.	.	.
=13	=13	=13	=13	=13	=13	=13	=13	=13	=13	=13	=13
!	!	!	!LO:DY:t=pn	!LO:TX:a:t=|:problem	!	!LO:TX:a:t=|:problem	!	!	!	!	!
8G#\	.	8B/	p	16gg#\LL	p	16gg#\LL	p	2ryy	2ryy	2ryy	2ryy
!	!	!	!	!LO:TX:a:t=|:problem	!	!LO:TX:a:t=|:problem	!	!	!	!	!
.	.	.	.	16ee\	.	16ee\	.	.	.	.	.
!	!	!	!	!LO:TX:a:t=|:problem	!	!LO:TX:a:t=|:problem	!	!	!	!	!
8r	.	8r	.	16bb\	.	16bb\	.	.	.	.	.
!	!	!	!	!LO:TX:a:t=|:problem	!	!LO:TX:a:t=|:problem	!	!	!	!	!
.	.	.	.	16bb\JJ	.	16bb\JJ	.	.	.	.	.
!	!	!	!	!LO:TX:a:t=|:problem	!	!LO:TX:a:t=|:problem	!	!	!	!	!
8G#\	.	8B/	.	16bb\LL	.	16bb\LL	.	.	.	.	.
!	!	!	!	!LO:TX:a:t=|:problem	!	!LO:TX:a:t=|:problem	!	!	!	!	!
.	.	.	.	16gg#\	.	16gg#\	.	.	.	.	.
!	!	!	!	!LO:TX:a:t=|:problem	!	!LO:TX:a:t=|:problem	!	!	!	!	!
8r	.	8r	.	16ff#\	.	16ff#\	.	.	.	.	.
!	!	!	!	!LO:TX:a:t=|:problem	!	!LO:TX:a:t=|:problem	!	!	!	!	!
.	.	.	.	16ee\JJ	.	16ee\JJ	.	.	.	.	.
=14	=14	=14	=14	=14	=14	=14	=14	=14	=14	=14	=14
8A\	.	8A/	.	16dd#X\LL	.	(16dd#X\LL	.	2ryy	2ryy	2ryy	2ryy
.	.	.	.	16cc#\	.	16cc#\	.	.	.	.	.
8r	.	8r	.	16b\	.	16b\	.	.	.	.	.
.	.	.	.	16cc#\JJ	.	16cc#\JJ)	.	.	.	.	.
8A\	.	8c#/	.	16gg#\LL	.	(16gg#\LL	.	.	.	.	.
.	.	.	.	16ff#\	.	16ff#\	.	.	.	.	.
8r	.	8r	.	16ee#X\	.	16ee#X\	.	.	.	.	.
.	.	.	.	(16ff#\JJ	.	16ff#\JJ)	.	.	.	.	.
=15	=15	=15	=15	=15	=15	=15	=15	=15	=15	=15	=15
8A\	.	8c#/	.	16aa'\LL)	.	16aa\LL	.	2ryy	2ryy	2ryy	2ryy
.	.	.	.	(16bb\	.	16bb\	.	.	.	.	.
8r	.	8r	.	16aa\	.	16aa\	.	.	.	.	.
.	.	.	.	16bb\JJ)	.	16bb\JJ	.	.	.	.	.
8A#X\	.	8c#/	.	8ccc#\L	.	8ccc#\L	.	.	.	.	.
8r	.	8r	.	8ee\J	.	8aa\J	.	.	.	.	.
!	!	!	!	!	!	!LO:LB:g=original	!	!	!	!	!
=16	=16	=16	=16	=16	=16	=16	=16	=16	=16	=16	=16
.	.	.	.	8qqee/	.	8qqee/	.	.	.	.	.
8B\	.	8B/	.	8dd#X\L	.	8dd#X\L	.	2ryy	2ryy	2ryy	2ryy
8r	.	8r	.	16cc#\L	.	16cc#\L	.	.	.	.	.
.	.	.	.	16b\JJ	.	16b\JJ	.	.	.	.	.
8BB/	.	8B/	.	8b\	.	8b\	.	.	.	.	.
8r	.	8r	.	8r	.	8r	.	.	.	.	.
=17	=17	=17	=17	=17	=17	=17	=17	=17	=17	=17	=17
*tremolo	*	*	*	*	*	*	*	*	*	*	*
!	!LO:DY:t=for	!	!LO:DY:t=for	!	!	!	!	!	!	!	!
8BB/L	f	2B/	f	16.ff#\LL	f	16.aa\LL	f	2ryy	2ryy	2ryy	2ryy
.	.	.	.	32ee#X\K	.	32gg#\K	.	.	.	.	.
8BB/	.	.	.	16.ff#\	.	16.aa\	.	.	.	.	.
.	.	.	.	32ee#\JJk	.	32gg#\JJk	.	.	.	.	.
8BB/	.	.	.	16.ff#\LL	.	16.aa\LL	.	.	.	.	.
.	.	.	.	32ee#\K	.	32gg#\K	.	.	.	.	.
8BB/J	.	.	.	16.ff#\	.	16.aa\	.	.	.	.	.
.	.	.	.	32ee#\JJk	.	32gg#\JJk	.	.	.	.	.
=18	=18	=18	=18	=18	=18	=18	=18	=18	=18	=18	=18
8BB/	.	8B/	.	8ff#\	.	8aa\	.	2ryy	2ryy	2ryy	2ryy
8r	.	8r	.	8r	.	8r	.	.	.	.	.
4r	.	4r	.	8r	.	8r	.	.	.	.	.
.	.	.	.	16.d#X/LL	.	16.f#/LL	p	.	.	.	.
.	.	.	.	32e/JJk	p	32g#/JJk	.	.	.	.	.
!	!	!	!	!LO:LB:g=original	!	!	!	!	!	!	!
=19	=19	=19	=19	=19	=19	=19	=19	=19	=19	=19	=19
!	!LO:DY:t=pn	!	!LO:DY:t=pn	!	!	!	!	!	!	!	!
8BB/	p	8B/	p	8f#/	.	8a/	.	2ryy	2ryy	2ryy	2ryy
8r	.	8r	.	16.d/LL	.	16.f#/LL	.	.	.	.	.
.	.	.	.	32e/JJk	.	32g#/JJk	.	.	.	.	.
.	.	.	.	8qqg#/	.	8qqb/	.	.	.	.	.
8BB/	.	8B/	.	8f#/L	.	8a/L	.	.	.	.	.
8r	.	8r	.	16e/L	.	16g#/L	.	.	.	.	.
.	.	.	.	16d#X/JJ	.	16f#/JJ	.	.	.	.	.
=20	=20	=20	=20	=20	=20	=20	=20	=20	=20	=20	=20
.	.	.	.	8qqf#/	.	8qqf#/	.	.	.	.	.
4BB/	.	8B/	.	4e/	.	4g#/	.	2ryy	2ryy	2ryy	2ryy
.	.	8r	.	.	.	.	.	.	.	.	.
4r	.	4r	.	4r	.	4r	.	.	.	.	.
=21	=21	=21	=21	=21	=21	=21	=21	=21	=21	=21	=21
*	*	*tremolo	*	*	*	*	*	*	*	*	*
!	!LO:DY:t=for	!	!LO:DY:t=for	!	!	!	!	!	!	!	!
8BB/L	f	8B/L	f	16.gg#\LL	f	16.bb\LL	f	2ryy	2ryy	2ryy	2ryy
.	.	.	.	32ff##\K	.	32aa#X\K	.	.	.	.	.
8BB/	.	8B/	.	16.gg#\	.	16.bb\	.	.	.	.	.
.	.	.	.	32ff##\JJk	.	32aa#\JJk	.	.	.	.	.
8BB/	.	8B/	.	16.gg#\LL	.	16.bb\LL	.	.	.	.	.
.	.	.	.	32ff##\K	.	32aa#\K	.	.	.	.	.
8BB/J	.	8B/J	.	16.gg#\	.	16.bb\	.	.	.	.	.
.	.	.	.	32ff##\JJk	.	32aa#\JJk	.	.	.	.	.
*	*	*Xtremolo	*	*	*	*	*	*	*	*	*
!	!	!LO:LB:g=original	!	!	!	!	!	!	!	!	!
=22	=22	=22	=22	=22	=22	=22	=22	=22	=22	=22	=22
4BB/	.	8B/	.	8gg#\	.	8bb\	.	2ryy	2ryy	2ryy	2ryy
.	.	8r	.	8r	.	8r	.	.	.	.	.
4r	.	4r	.	8r	p	8r	.	.	.	.	.
.	.	.	.	16.e/LL	.	16.g#/LL	p	.	.	.	.
.	.	.	.	32f#/JJk	.	32a/JJk	.	.	.	.	.
=23	=23	=23	=23	=23	=23	=23	=23	=23	=23	=23	=23
!	!	!	!LO:DY:t=pn	!	!	!	!	!	!	!	!
8BB/	.	8B/	p	8g#/	.	8b/	.	2ryy	2ryy	2ryy	2ryy
8r	.	8r	.	16.e/LL	.	16.g#/LL	.	.	.	.	.
.	.	.	.	32f#/JJk	.	32a/JJk	.	.	.	.	.
.	.	.	.	8qqa/	.	8qqcc#/	.	.	.	.	.
8BB/	.	8B/	.	8g#/L	.	8b/L	.	.	.	.	.
8r	.	8r	.	16f#/L	.	16a/L	.	.	.	.	.
.	.	.	.	16e#X/JJ	.	16g#/JJ	.	.	.	.	.
=24	=24	=24	=24	=24	=24	=24	=24	=24	=24	=24	=24
.	.	.	.	8qqe/	.	8qqg#/	.	.	.	.	.
4BB/	.	8B/	.	4f#/	.	4a/	.	2ryy	2ryy	2ryy	2ryy
.	.	8r	.	.	.	.	.	.	.	.	.
4r	.	4r	.	4r	.	4r	.	.	.	.	.
!LO:PB:g=original	!	!	!	!	!	!LO:LB:g=original	!	!	!	!	!
=25	=25	=25	=25	=25	=25	=25	=25	=25	=25	=25	=25
!	!LO:DY:t=for	!	!LO:DY:t=for	!	!	!	!	!	!	!	!
8BB/L	f	2B/	f	16.ff#\LL	f	16.aa\LL	f	2ryy	2ryy	2ryy	2ryy
.	.	.	.	32ee#X\K	.	32gg#\K	.	.	.	.	.
8BB/	.	.	.	16.ff#\	.	16.aa\	.	.	.	.	.
.	.	.	.	32ee#\JJk	.	32gg#\JJk	.	.	.	.	.
8BB/	.	.	.	16.ff#\LL	.	16.aa\LL	.	.	.	.	.
.	.	.	.	32ee#\K	.	32gg#\K	.	.	.	.	.
8BB/J	.	.	.	16.ff#\	.	16.aa\	.	.	.	.	.
.	.	.	.	32ee#\JJk	.	32gg#\JJk	.	.	.	.	.
*Xtremolo	*	*	*	*	*	*	*	*	*	*	*
=26	=26	=26	=26	=26	=26	=26	=26	=26	=26	=26	=26
!	!	!	!	!LO:TX:a:t=|:problem	!	!LO:TX:a:t=|:problem	!	!	!	!	!
8BB/	.	8B/	.	16ff#\LL	.	16aa\LL	.	2ryy	2ryy	2ryy	2ryy
!	!	!	!	!LO:TX:a:t=|:problem	!	!LO:TX:a:t=|:problem	!	!	!	!	!
.	.	.	.	16een\	.	16gg#\	.	.	.	.	.
!	!	!	!	!LO:TX:a:t=|:problem	!	!LO:TX:a:t=|:problem	!	!	!	!	!
8r	.	8r	.	16dd#X\	.	16ff#\	.	.	.	.	.
!	!	!	!	!LO:TX:a:t=|:problem	!	!LO:TX:a:t=|:problem	!	!	!	!	!
.	.	.	.	16cc#\JJ	.	16ee\JJ	.	.	.	.	.
!	!	!	!	!LO:TX:b:t=|:problem	!	!LO:TX:a:t=|:problem	!	!	!	!	!
8BB/	.	8B/	.	16b/LL	.	16dd#X\LL	.	.	.	.	.
!	!	!	!	!LO:TX:b:t=|:problem	!	!LO:TX:a:t=|:problem	!	!	!	!	!
.	.	.	.	16a/	.	16cc#\	.	.	.	.	.
!	!	!	!	!LO:TX:b:t=|:problem	!	!LO:TX:a:t=|:problem	!	!	!	!	!
8r	.	8r	.	16g#/	.	16b\	.	.	.	.	.
!	!	!	!	!LO:TX:b:t=|:problem	!	!LO:TX:a:t=|:problem	!	!	!	!	!
.	.	.	.	16f#/JJ	.	16a\JJ	.	.	.	.	.
=27	=27	=27	=27	=27	=27	=27	=27	=27	=27	=27	=27
*2\right	*	*2\right	*	*	*	*	*	*	*	*	*
!	!LO:DY:t=pn	!	!	!	!	!	!	!	!	!	!
2E\	p	2e\	p	4e/	p	8g#/	.	2ryy	2ryy	2ryy	2ryy
.	.	.	.	.	.	8r	p	.	.	.	.
.	.	.	.	4d#X/	.	(16gg#\LL	.	.	.	.	.
.	.	.	.	.	.	16aa\	.	.	.	.	.
.	.	.	.	.	.	16bb\	.	.	.	.	.
.	.	.	.	.	.	16bb\JJ)	.	.	.	.	.
=28	=28	=28	=28	=28	=28	=28	=28	=28	=28	=28	=28
(4A\	.	(4a\	f	2c#/	.	8bb\L	.	2ryy	2ryy	2ryy	2ryy
.	.	.	.	.	.	8cc#\J	.	.	.	.	.
4F#\)	.	4f#\)	.	.	.	(16ff#\LL	.	.	.	.	.
.	.	.	.	.	.	16gg#\	.	.	.	.	.
.	.	.	.	.	.	16aa\	.	.	.	.	.
.	.	.	.	.	.	16aa\JJ)	.	.	.	.	.
=29	=29	=29	=29	=29	=29	=29	=29	=29	=29	=29	=29
(4D#X\	.	(4d#X\	.	2B/	.	(8aa\L	.	2ryy	2ryy	2ryy	2ryy
.	.	.	.	.	.	8b\J)	.	.	.	.	.
4E\)	.	4e\)	.	.	.	(16ee\LL	.	.	.	.	.
.	.	.	.	.	.	16ff#\	.	.	.	.	.
.	.	.	.	.	.	16gg#\	.	.	.	.	.
.	.	.	.	.	.	16gg#\JJ)	.	.	.	.	.
!	!	!	!	!LO:LB:g=original	!	!	!	!	!	!	!
=30	=30	=30	=30	=30	=30	=30	=30	=30	=30	=30	=30
(4AA/	.	4A/	.	8.c#/L	.	(16gg#\LL	.	2ryy	2ryy	2ryy	2ryy
.	.	.	.	.	.	16ff#\	.	.	.	.	.
.	.	.	.	.	.	16aa\	.	.	.	.	.
.	.	.	.	16a/Jk	.	16ff#\JJ)	.	.	.	.	.
4BB/)	.	4B/	.	8g#/L	.	8ee\L	.	.	.	.	.
.	.	.	.	8f#/J	.	8dd#X\J	.	.	.	.	.
=31	=31	=31	=31	=31	=31	=31	=31	=31	=31	=31	=31
!	!	!LO:TX:b:t=ten	!	!	!	!	!	!	!	!	!
2E\	.	2e\	.	4.e/	.	8ee\	.	2ryy	2ryy	2ryy	2ryy
.	.	.	.	.	.	8r	.	.	.	.	.
.	.	.	.	.	.	(16gg#\LL	.	.	.	.	.
.	.	.	.	.	.	16aa\	.	.	.	.	.
.	.	.	.	8d/	.	16bb\	.	.	.	.	.
.	.	.	.	.	.	16bb\JJ)	.	.	.	.	.
=32	=32	=32	=32	=32	=32	=32	=32	=32	=32	=32	=32
(4A\	.	(4a\	.	2c#/	.	(8bb\L	.	2ryy	2ryy	2ryy	2ryy
.	.	.	.	.	.	8cc#\J)	.	.	.	.	.
4F#\)	.	4f#\)	.	.	.	(16ff#\LL	.	.	.	.	.
.	.	.	.	.	.	16gg#\	.	.	.	.	.
.	.	.	.	.	.	16aa\	.	.	.	.	.
.	.	.	.	.	.	16aa\JJ)	.	.	.	.	.
!	!	!	!	!	!	!LO:LB:g=original	!	!	!	!	!
=33	=33	=33	=33	=33	=33	=33	=33	=33	=33	=33	=33
(4D#X\	.	(4d#X\	.	2B/	.	(8aa\L	.	2ryy	2ryy	2ryy	2ryy
.	.	.	.	.	.	8b\J)	.	.	.	.	.
4E\)	.	4e\)	.	.	.	(16ee\LL	.	.	.	.	.
.	.	.	.	.	.	16ff#\	.	.	.	.	.
.	.	.	.	.	.	16gg#\	.	.	.	.	.
.	.	.	.	.	.	16gg#\JJ)	.	.	.	.	.
=34	=34	=34	=34	=34	=34	=34	=34	=34	=34	=34	=34
4AA/	.	(4A/	.	8.c#/L	.	(16gg#\LL	.	2ryy	2ryy	2ryy	2ryy
.	.	.	.	.	.	16ff#\	.	.	.	.	.
.	.	.	.	.	.	16aa\	.	.	.	.	.
.	.	.	.	16a/Jk	.	16ff#\JJ)	.	.	.	.	.
4BB/	.	4B/)	.	8.g#/L	.	8ee\L	.	.	.	.	.
.	.	.	.	.	.	8dd#X\J	.	.	.	.	.
.	.	.	.	16f#/Jk	.	.	.	.	.	.	.
=35	=35	=35	=35	=35	=35	=35	=35	=35	=35	=35	=35
*	*	*	*	*	*	*^	*	*	*	*	*
!	!LO:DY:t=for	!	!	!	!	!	!	!	!	!	!	!
8E\	f	16r	.	16r	f	8ee\	8ryy	f	2ryy	2ryy	2ryy	2ryy
.	.	16e'\LL	f	16e'/LL	.	.	.	.	.	.	.	.
4E\	.	16g#'\	.	16g#'/	.	4b\	4bb/	.	.	.	.	.
.	.	16b'\JJ	.	16b'/JJ	.	.	.	.	.	.	.	.
.	.	16g#'\LL	p	16g#'/LL	p	.	.	.	.	.	.	.
.	.	16e'\	.	16e'/	.	.	.	.	.	.	.	.
.	.	.	.	.	.	16qqbb/	.	.	.	.	.	.
!	!	!	!	!	!	!LO:N:vis=8	!	!	!	!	!	!
8r	.	16f#'\	.	16f#'/	.	16aa\LLL	8ryy	p	.	.	.	.
.	.	16d#X'\JJ	.	16d#X'/JJ	.	32gg#\	.	.	.	.	.	.
.	.	.	.	.	.	32ff#\JJJ	.	.	.	.	.	.
!	!	!LO:LB:g=original	!	!	!	!	!	!	!	!	!	!
=36	=36	=36	=36	=36	=36	=36	=36	=36	=36	=36	=36	=36
8E\	.	16r	.	16r	f	8ee\	8ryy	.	2ryy	2ryy	2ryy	2ryy
!	!	!LO:TX:a:t=|:problem	!	!	!	!	!	!	!	!	!	!
.	.	16e\LL	f	16e/LL	.	.	.	.	.	.	.	.
!	!	!LO:TX:a:t=|:problem	!	!	!	!	!	!	!	!	!	!
4E\	.	16g#\	.	16g#/	.	4b\	4bb/	.	.	.	.	.
!	!	!LO:TX:a:t=|:problem	!	!	!	!	!	!	!	!	!	!
.	.	16b\JJ	.	16b/JJ	.	.	.	.	.	.	.	.
!	!	!LO:TX:a:t=|:problem	!LO:DY:t=pn	!	!	!	!	!	!	!	!	!
.	.	16g#\LL	p	16g#/LL	.	.	.	.	.	.	.	.
!	!	!LO:TX:a:t=|:problem	!	!	!	!	!	!	!	!	!	!
.	.	16e\	.	16e/	.	.	.	.	.	.	.	.
.	.	.	.	.	.	8qqbb/	.	.	.	.	.	.
!	!	!LO:TX:a:t=|:problem	!	!	!	!LO:N:vis=8	!	!	!	!	!	!
8r	.	16f#\	.	16f#/	.	16aa\LLL	8ryy	.	.	.	.	.
!	!	!LO:TX:a:t=|:problem	!	!	!	!	!	!	!	!	!	!
.	.	16d\JJ	.	16d#X/JJ	.	32gg#\	.	.	.	.	.	.
.	.	.	.	.	.	32ff#\JJJ	.	.	.	.	.	.
*	*	*	*	*	*	*v	*v	*	*	*	*	*
=37	=37	=37	=37	=37	=37	=37	=37	=37	=37	=37	=37
!	!	!	!LO:DY:t=for	!	!	!	!	!	!	!	!
8E\	.	8e\	f	8e/	.	8ee\	.	2ryy	2ryy	2ryy	2ryy
!	!	!LO:TX:a:t=stac	!	!	!	!	!	!	!	!	!
16.E\LL	.	16.e\LL	.	16.e/LL	.	16.e/LL	.	.	.	.	.
32D#X\JJk	.	32d#X\JJk	.	32d#X/JJk	.	32d#X/K	.	.	.	.	.
16.E\LL	.	16.e\LL	.	16.e/LL	.	16.e/	.	.	.	.	.
32D#\K	.	32d#\K	.	32d#/K	.	32d#/JJk	.	.	.	.	.
16.E\	.	16.e\	.	16.e/	.	16.e/LL	.	.	.	.	.
32D#\JJk	.	32d#\JJk	.	32d#/JJk	.	32d#/JJk	.	.	.	.	.
=38	=38	=38	=38	=38	=38	=38	=38	=38	=38	=38	=38
8E\	.	8e\	.	8e/	.	8e/	.	2ryy	2ryy	2ryy	2ryy
16.E\LL	.	16.e\LL	.	16.e/LL	.	16.e/LL	.	.	.	.	.
32D#X\JJk	.	32d#X\JJk	.	32d#X/JJk	.	32d#X/JJk	.	.	.	.	.
16.E\LL	.	16.e\LL	.	16.e/LL	.	16.e/LL	.	.	.	.	.
32D#\K	.	32d#\K	.	32d#/K	.	32d#/K	.	.	.	.	.
16.E\	.	16.e\	.	16.e/	.	16.e/	.	.	.	.	.
32D#\JJk	.	32d#\JJk	.	32d#/JJk	.	32d#/JJk	.	.	.	.	.
!LO:LB:g=original	!	!	!	!	!	!	!	!	!	!	!
=39	=39	=39	=39	=39	=39	=39	=39	=39	=39	=39	=39
8E\	.	8e\	.	8e/	.	8e/	.	2ryy	2ryy	2ryy	2ryy
8r	.	8r	.	8r	.	8r	.	.	.	.	.
8E\	.	8e\	.	8G#/	.	8e/	.	.	.	.	.
8r	.	8r	.	8r	.	8r	.	.	.	.	.
=40	=40	=40	=40	=40	=40	=40	=40	=40	=40	=40	=40
4E\	.	4e\	.	4G#/	.	4e/	.	2ryy	2ryy	2ryy	2ryy
4r	.	4r	.	4r	.	4r	.	.	.	.	.
!	!	!	!	!LO:PB:g=original	!	!	!	!	!	!	!
=41	=41	=41	=41	=41	=41	=41	=41	=41	=41	=41	=41
!	!LO:DY:rj:t=pn	!	!LO:DY:t=pn	!LO:TX:a:t=|:problem	!	!LO:TX:a:t=|:problem	!	!	!	!	!
8A\	p	8a\	p	16ee\LL	p	16ee\LL	p	2ryy	2ryy	2ryy	2ryy
!	!	!	!	!LO:TX:a:t=|:problem	!	!LO:TX:a:t=|:problem	!	!	!	!	!
.	.	.	.	16cc#\	.	16cc#\	.	.	.	.	.
!	!	!	!	!LO:TX:a:t=|:problem	!	!LO:TX:a:t=|:problem	!	!	!	!	!
8r	.	8r	.	16aa\	.	16aa\	.	.	.	.	.
!	!	!	!	!LO:TX:a:t=|:problem	!	!LO:TX:a:t=|:problem	!	!	!	!	!
.	.	.	.	16gg#\JJ	.	16gg#\JJ	.	.	.	.	.
!	!	!	!	!LO:TX:a:t=|:problem	!	!LO:TX:a:t=|:problem	!	!	!	!	!
8A\	.	8a\	.	16ff#\LL	.	16ff#\LL	.	.	.	.	.
!	!	!	!	!LO:TX:a:t=|:problem	!	!LO:TX:a:t=|:problem	!	!	!	!	!
.	.	.	.	16ee\	.	16ee\	.	.	.	.	.
!	!	!	!	!LO:TX:a:t=|:problem	!	!LO:TX:a:t=|:problem	!	!	!	!	!
8r	.	8r	.	16dd\	.	16dd\	.	.	.	.	.
!	!	!	!	!LO:TX:a:t=|:problem	!	!LO:TX:a:t=|:problem	!	!	!	!	!
.	.	.	.	16cc#\JJ	.	16cc#\JJ	.	.	.	.	.
=42	=42	=42	=42	=42	=42	=42	=42	=42	=42	=42	=42
!LO:TX:a:t=|:problem	!	!	!LO:DY:t=for	!	!	!	!	!	!	!	!
8B\L	f	8b'\L	f	16.dd\LL	f	16.dd\LL	f	2ryy	2ryy	2ryy	2ryy
.	.	.	.	32cc#\K	.	32cc#\K	.	.	.	.	.
!LO:TX:a:t=|:problem	!	!	!	!	!	!	!	!	!	!	!
8B\J	.	8b'\	.	16.dd\	.	16.dd\	.	.	.	.	.
.	.	.	.	32cc#\JJk	.	32cc#\JJk	.	.	.	.	.
8B\	.	8b'\J	.	8dd\	.	8dd\	.	.	.	.	.
8r	.	8r	.	8r	.	8r	.	.	.	.	.
!	!	!	!	!	!	!LO:LB:g=original	!	!	!	!	!
=43	=43	=43	=43	=43	=43	=43	=43	=43	=43	=43	=43
!	!	!	!LO:DY:t=pn	!LO:TX:a:t=|:problem	!	!LO:TX:a:t=|:problem	!	!	!	!	!
8G#\	p	8g#\	p	16dd\LL	p	16dd\LL	p	2ryy	2ryy	2ryy	2ryy
!	!	!	!	!LO:TX:a:t=|:problem	!	!LO:TX:a:t=|:problem	!	!	!	!	!
.	.	.	.	16b\	.	16b\	.	.	.	.	.
!	!	!	!	!LO:TX:a:t=|:problem	!	!LO:TX:a:t=|:problem	!	!	!	!	!
8r	.	8r	.	16bb\	.	16bb\	.	.	.	.	.
!	!	!	!	!LO:TX:a:t=|:problem	!	!LO:TX:a:t=|:problem	!	!	!	!	!
.	.	.	.	16aa\JJ	.	16aa\JJ	.	.	.	.	.
!	!	!	!	!LO:TX:a:t=|:problem	!	!LO:TX:a:t=|:problem	!	!	!	!	!
8G#\	.	8g#\	.	16gg#\LL	.	16gg#\LL	.	.	.	.	.
!	!	!	!	!LO:TX:a:t=|:problem	!	!LO:TX:a:t=|:problem	!	!	!	!	!
.	.	.	.	16ff#\	.	16ff#\	.	.	.	.	.
!	!	!	!	!LO:TX:a:t=|:problem	!	!LO:TX:a:t=|:problem	!	!	!	!	!
8r	.	8r	.	16ee\	.	16ee\	.	.	.	.	.
!	!	!	!	!LO:TX:a:t=|:problem	!	!LO:TX:a:t=|:problem	!	!	!	!	!
.	.	.	.	16dd\JJ	.	16dd\JJ	.	.	.	.	.
=44	=44	=44	=44	=44	=44	=44	=44	=44	=44	=44	=44
!LO:TX:a:t=|:problem	!	!	!LO:DY:t=for	!	!	!	!	!	!	!	!
8A\L	f	8a\L	f	16.cc#\LL	f	16.cc#\LL	f	2ryy	2ryy	2ryy	2ryy
!	!	!	!	!	!	!LO:TX:a:t=P:problem:# above	!	!	!	!	!
.	.	.	.	32b#X\K	.	32b#X\K	.	.	.	.	.
!LO:TX:a:t=|:problem	!	!	!	!	!	!	!	!	!	!	!
8A\J	.	8a\	.	16.cc#\	.	16.cc#\	.	.	.	.	.
.	.	.	.	32b#\JJk	.	32b#\JJk	.	.	.	.	.
8A\	.	8a\J	.	8cc#\	.	8cc#\	.	.	.	.	.
8r	.	8r	.	8r	.	8r	.	.	.	.	.
=45	=45	=45	=45	=45	=45	=45	=45	=45	=45	=45	=45
!	!	!	!LO:DY:rj:t=pn	!LO:TX:a:t=|:problem	!	!LO:TX:a:t=|:problem	!	!	!	!	!
8C#/	p	8c#\	p	16ee\LL	p	16ee\LL	p	2ryy	2ryy	2ryy	2ryy
!	!	!	!	!LO:TX:a:t=|:problem	!	!LO:TX:a:t=|:problem	!	!	!	!	!
.	.	.	.	16cc#\	.	16cc#\	.	.	.	.	.
!	!	!	!	!LO:TX:a:t=|:problem	!	!LO:TX:a:t=|:problem	!	!	!	!	!
8r	.	8r	.	16aa\	.	16aa\	.	.	.	.	.
!	!	!	!	!LO:TX:a:t=|:problem	!	!LO:TX:a:t=|:problem	!	!	!	!	!
.	.	.	.	16gg#\JJ	.	16gg#\JJ	.	.	.	.	.
!	!	!	!	!LO:TX:a:t=|:problem	!	!LO:TX:a:t=|:problem	!	!	!	!	!
8C#/	.	8c#\	.	16ff#\LL	.	16ff#\LL	.	.	.	.	.
!	!	!	!	!LO:TX:a:t=|:problem	!	!LO:TX:a:t=|:problem	!	!	!	!	!
.	.	.	.	16ee\	.	16ee\	.	.	.	.	.
!	!	!	!	!LO:TX:a:t=|:problem	!	!LO:TX:a:t=|:problem	!	!	!	!	!
8r	.	8r	.	16dd\	.	16dd\	.	.	.	.	.
!	!	!	!	!LO:TX:a:t=|:problem	!	!LO:TX:a:t=|:problem	!	!	!	!	!
.	.	.	.	16cc#\JJ	.	16cc#\JJ	.	.	.	.	.
!	!	!LO:LB:g=original	!	!	!	!	!	!	!	!	!
=46	=46	=46	=46	=46	=46	=46	=46	=46	=46	=46	=46
8D/	.	8f#\	.	(16cc#\LL	.	(16cc#\LL	.	2ryy	2ryy	2ryy	2ryy
.	.	.	.	16b\	.	16b\	.	.	.	.	.
8r	.	8r	.	16a#X\	.	16a#X\	.	.	.	.	.
.	.	.	.	16b\JJ)	.	16b\JJ)	.	.	.	.	.
.	.	8qqg#/	.	8qqee/	.	8qee/	.	.	.	.	.
8D/	.	8f#\L	.	8dd\L	.	8dd\L	.	.	.	.	.
8r	.	16e\L	.	16cc#\L	.	16cc#\L	.	.	.	.	.
.	.	16d\JJ	.	16b\JJ	.	16b\JJ	.	.	.	.	.
=47	=47	=47	=47	=47	=47	=47	=47	=47	=47	=47	=47
8E\	.	8.e\L	.	16cc#\LL	.	16cc#\LL	.	2ryy	2ryy	2ryy	2ryy
.	.	.	.	16dd\	.	16dd\	.	.	.	.	.
8r	.	.	.	16ee\	.	16ee\	.	.	.	.	.
.	.	16c#\Jk	.	16a\JJ	.	16a\JJ	.	.	.	.	.
.	.	8qqe/	.	8qqcc#/	.	8qcc#/	.	.	.	.	.
8E\	.	8d\L	.	8b\L	.	8b/L	.	.	.	.	.
8r	.	16c#\L	.	16a\L	.	16a/L	.	.	.	.	.
.	.	16B\JJ	.	16g#\JJ	.	16g#/JJ	.	.	.	.	.
=48	=48	=48	=48	=48	=48	=48	=48	=48	=48	=48	=48
!	!LO:DY:t=for	!	!LO:DY:t=for	!	!	!	!	!	!	!	!
8AA/L	f	16.A/LL	f	16.a/LL	f	16.a/LL	f	2ryy	2ryy	2ryy	2ryy
.	.	32G#/K	.	32g#/K	.	32g#/K	.	.	.	.	.
8AA/J	.	16.A/	.	16.a/	.	16.a/	.	.	.	.	.
.	.	32G#/JJk	.	32g#/JJk	.	32g#/JJk	.	.	.	.	.
8AA/	.	8A/	.	8a/	.	8a/	.	.	.	.	.
8r	.	8r	.	8ryy	.	8ryy	.	.	.	.	.
=49	=49	=49	=49	=49	=49	=49	=49	=49	=49	=49	=49
!	!LO:DY:t=pn	!	!LO:DY:rj:t=pn	!LO:TX:a:t=|:problem	!	!LO:TX:a:t=|:problem	!	!	!	!	!
8A\	p	8A/	p	16ee\LL	p	16ee\LL	p	2ryy	2ryy	2ryy	2ryy
!	!	!	!	!LO:TX:a:t=|:problem	!	!LO:TX:a:t=|:problem	!	!	!	!	!
.	.	.	.	16cc#\	.	16cc#\	.	.	.	.	.
!	!	!	!	!LO:TX:a:t=|:problem	!	!LO:TX:a:t=|:problem	!	!	!	!	!
8r	.	8r	.	16aa\	.	16aa\	.	.	.	.	.
!	!	!	!	!LO:TX:a:t=|:problem	!	!LO:TX:a:t=|:problem	!	!	!	!	!
.	.	.	.	16aa\JJ	.	16aa\JJ	.	.	.	.	.
!	!	!	!	!LO:LB:g=original	!	!	!	!	!	!	!
!	!	!	!	!LO:TX:a:t=|:problem	!	!LO:TX:a:t=|:problem	!	!	!	!	!
8Gn\	.	8A/	.	16aa\LL	.	16aa\LL	.	.	.	.	.
!	!	!	!	!LO:TX:a:t=|:problem	!	!LO:TX:a:t=|:problem	!	!	!	!	!
.	.	.	.	16ee\	.	16ee\	.	.	.	.	.
!	!	!	!	!LO:TX:a:t=|:problem	!	!LO:TX:a:t=|:problem	!	!	!	!	!
8r	.	8r	.	16dd\	.	16dd\	.	.	.	.	.
!	!	!	!	!LO:TX:a:t=|:problem	!	!LO:TX:a:t=|:problem	!	!	!	!	!
.	.	.	.	16cc#\JJ	.	16cc#\JJ	.	.	.	.	.
=50	=50	=50	=50	=50	=50	=50	=50	=50	=50	=50	=50
!	!LO:DY:t=for	!	!LO:DY:t=for	!	!	!	!	!	!	!	!
8F#\L	f	8A/L	f	16.dd\LL	f	16.dd\LL	f	2ryy	2ryy	2ryy	2ryy
.	.	.	.	32cc#\K	.	32cc#\K	.	.	.	.	.
8F#\J	.	8A/	.	16.dd\	.	16.dd\	.	.	.	.	.
.	.	.	.	32cc#\JJk	.	32cc#\JJk	.	.	.	.	.
8F#\	.	8A/J	.	8dd\	.	8dd\	.	.	.	.	.
8r	.	8r	.	8r	.	8r	.	.	.	.	.
!LO:LB:g=original	!	!	!	!	!	!LO:LB:g=original	!	!	!	!	!
=51	=51	=51	=51	=51	=51	=51	=51	=51	=51	=51	=51
!	!LO:DY:t=pn	!	!LO:DY:t=pn	!LO:TX:a:t=|:problem	!	!LO:TX:a:t=|:problem	!	!	!	!	!
8F#\	p	8A/	p	16dd\LL	p	16dd\LL	p	2ryy	2ryy	2ryy	2ryy
!	!	!	!	!LO:TX:a:t=|:problem	!	!LO:TX:a:t=|:problem	!	!	!	!	!
.	.	.	.	16a\	.	16a\	.	.	.	.	.
!	!	!	!	!LO:TX:a:t=|:problem	!	!LO:TX:a:t=|:problem	!	!	!	!	!
8r	.	8r	.	16aa\	.	16aa\	.	.	.	.	.
!	!	!	!	!LO:TX:a:t=|:problem	!	!LO:TX:a:t=|:problem	!	!	!	!	!
.	.	.	.	16aa\JJ	.	16aa\JJ	.	.	.	.	.
!	!	!	!	!LO:TX:a:t=|:problem	!	!LO:TX:a:t=|:problem	!	!	!	!	!
8F#\	.	8A/	.	16aa\LL	.	16aa\LL	.	.	.	.	.
!	!	!	!	!LO:TX:a:t=|:problem	!	!LO:TX:a:t=|:problem	!	!	!	!	!
.	.	.	.	16ff#\	.	16ff#\	.	.	.	.	.
!	!	!	!	!LO:TX:a:t=|:problem	!	!LO:TX:a:t=|:problem	!	!	!	!	!
8r	.	8r	.	16ee\	.	16ee\	.	.	.	.	.
!	!	!	!	!LO:TX:a:t=|:problem	!	!LO:TX:a:t=|:problem	!	!	!	!	!
.	.	.	.	16dd#X\JJ	.	16dd#X\JJ	.	.	.	.	.
=52	=52	=52	=52	=52	=52	=52	=52	=52	=52	=52	=52
!	!LO:DY:t=for	!	!LO:DY:t=for	!	!	!	!	!	!	!	!
8C#/L	f	8A/L	f	16.ee\LL	f	16.ee\LL	f	2ryy	2ryy	2ryy	2ryy
.	.	.	.	32dd#X\K	.	32dd#X\K	.	.	.	.	.
8C#/J	.	8A/	.	16.ee\	.	16.ee\	.	.	.	.	.
.	.	.	.	32dd#\JJk	.	32dd#\JJk	.	.	.	.	.
8C#/	.	8A/J	.	8ee\	.	8ee\	.	.	.	.	.
8r	.	8r	.	8r	.	8r	.	.	.	.	.
=53	=53	=53	=53	=53	=53	=53	=53	=53	=53	=53	=53
!	!LO:DY:t=pn	!	!LO:DY:t=pn	!	!	!	!	!	!	!	!
8C#/	p	8A/	p	(16ee\LL	p	16ee\LL	p	2ryy	2ryy	2ryy	2ryy
.	.	.	.	16cc#\	.	16cc#\	.	.	.	.	.
!	!	!	!	!	!	!LO:TX:a:t=|:problem	!	!	!	!	!
8r	.	8r	.	16aa\)	.	16aa\	.	.	.	.	.
!	!	!	!	!	!	!LO:TX:a:t=|:problem	!	!	!	!	!
.	.	.	.	16aa\JJ	.	16aa\JJ	.	.	.	.	.
8C#/	.	8A/	.	(16aa\LL	.	(16aa\LL	.	.	.	.	.
.	.	.	.	16ggn\	.	16ggn\	.	.	.	.	.
8r	.	8r	.	16ff#\	.	16ff#\	.	.	.	.	.
.	.	.	.	16gg\JJ)	.	16gg\JJ)	.	.	.	.	.
=54	=54	=54	=54	=54	=54	=54	=54	=54	=54	=54	=54
8D\	.	2A/	.	(16gg#\LL	.	(16gg#\LL	.	2ryy	2ryy	2ryy	2ryy
.	.	.	.	16ff#\	.	16ff#\	.	.	.	.	.
8r	.	.	.	16ee#X\	.	16ee#X\	.	.	.	.	.
.	.	.	.	16ff#\JJ)	.	16ff#\JJ)	.	.	.	.	.
8F#\	.	.	.	(16een\LL	.	(16een\LL	.	.	.	.	.
.	.	.	.	16dd\	.	16dd\	.	.	.	.	.
8r	.	.	.	16cc#\	.	16cc#\	.	.	.	.	.
.	.	.	.	16dd\JJ)	.	16dd\JJ)	.	.	.	.	.
=55	=55	=55	=55	=55	=55	=55	=55	=55	=55	=55	=55
8D\	.	8f#\	.	(16cc#\LL	.	(16cc#\LL	.	2ryy	2ryy	2ryy	2ryy
.	.	.	.	16b\	.	16b\	.	.	.	.	.
8r	.	8r	.	16a#X\	.	16a#X\	.	.	.	.	.
.	.	.	.	16b\JJ)	.	16b\JJ)	.	.	.	.	.
8D#X\	.	8f#\	.	16b/LL	.	(16b/LL	.	.	.	.	.
!	!	!	!	!LO:TX:b:t=P:problem:kasownik pod nutą	!	!	!	!	!	!	!
.	.	.	.	(16an/	.	16an/	.	.	.	.	.
8r	.	8r	.	16g#/	.	16g#/	.	.	.	.	.
.	.	.	.	16a/JJ)	.	16a/JJ)	.	.	.	.	.
=56	=56	=56	=56	=56	=56	=56	=56	=56	=56	=56	=56
.	.	.	.	8qqa/	.	8qqa/	.	.	.	.	.
!LO:TX:t=P:problem:mixed beam	!LO:TX:t=P:problem:mixed beam	!	!	!	!	!	!	!	!	!	!
8E\L	.	8e\L	.	8g#/L	.	8g#/L	.	2ryy	2ryy	2ryy	2ryy
8EE/J	.	8E/	.	16f#/L	.	16f#/L	.	.	.	.	.
.	.	.	.	16e/JJ	.	16e/JJ	.	.	.	.	.
8EE/	.	8E/J	.	8e/	.	8e/	.	.	.	.	.
8r	.	8r	.	8r	.	8r	.	.	.	.	.
!	!	!	!	!LO:LB:g=original	!	!	!	!	!	!	!
=57	=57	=57	=57	=57	=57	=57	=57	=57	=57	=57	=57
*tremolo	*	*tremolo	*	*	*	*	*	*	*	*	*
!LO:TX:b:i:t=aſsai	!LO:DY:t=for	!	!LO:DY:t=for	!	!	!	!	!	!	!	!
8E\L	f	8e\L	f	16.bb\LL	f	16.ddd\LL	f	2ryy	2ryy	2ryy	2ryy
.	.	.	.	32aa#X\K	.	32ccc#\K	.	.	.	.	.
8E\	.	8e\	.	16.bb\	.	16.ddd\	.	.	.	.	.
.	.	.	.	32aa#\JJk	.	32ccc#\JJk	.	.	.	.	.
8E\	.	8e\	.	16.bb\LL	.	16.ddd\LL	.	.	.	.	.
.	.	.	.	32aa#\K	.	32ccc#\K	.	.	.	.	.
8E\J	.	8e\J	.	16.bb\	.	16.ddd\	.	.	.	.	.
.	.	.	.	32aa#\JJk	.	32ccc#\JJk	.	.	.	.	.
!	!	!LO:LB:g=original	!	!	!	!LO:LB:g=original	!	!	!	!	!
=58	=58	=58	=58	=58	=58	=58	=58	=58	=58	=58	=58
8E\	.	8e\	.	8bb\	.	8ddd\	.	2ryy	2ryy	2ryy	2ryy
8r	.	8r	.	8r	.	8r	.	.	.	.	.
4r	.	4r	.	8r	.	8r	.	.	.	.	.
.	.	.	.	16.g#/LL	p	16.b\LL	p	.	.	.	.
.	.	.	.	32a/JJk	.	32cc#\JJk	.	.	.	.	.
=59	=59	=59	=59	=59	=59	=59	=59	=59	=59	=59	=59
!	!	!	!LO:DY:t=pn	!	!	!	!	!	!	!	!
8E\	p	8e\	p	8b\	.	8dd\L	.	2ryy	2ryy	2ryy	2ryy
8r	.	8r	.	16.g#/LL	.	16.b\L	.	.	.	.	.
.	.	.	.	32a/JJk	.	32cc#\JJk	.	.	.	.	.
.	.	.	.	8qqcc#/	.	8qqee/	.	.	.	.	.
8E\	.	8e\	.	8b/L	.	8dd\L	.	.	.	.	.
8r	.	8r	.	16g#/L	.	16cc#\L	.	.	.	.	.
.	.	.	.	16f#/JJ	.	16b\JJ	.	.	.	.	.
=60	=60	=60	=60	=60	=60	=60	=60	=60	=60	=60	=60
.	.	.	.	8qqb/	.	8qqb/	.	.	.	.	.
4E\	.	4e\	.	4a/	.	4cc#\	.	2ryy	2ryy	2ryy	2ryy
4r	.	4r	.	4r	.	4r	.	.	.	.	.
=61	=61	=61	=61	=61	=61	=61	=61	=61	=61	=61	=61
!	!LO:DY:t=for	!	!LO:DY:t=for	!	!	!	!	!	!	!	!
8E\L	f	8e\L	f	16.ccc#\LL	f	16.eee\LL	f	2ryy	2ryy	2ryy	2ryy
.	.	.	.	32bb#X\K	.	32ddd#X\K	.	.	.	.	.
8E\	.	8e\	.	16.ccc#\	.	16.eee\	.	.	.	.	.
.	.	.	.	32bb#\JJk	.	32ddd#\JJk	.	.	.	.	.
8E\	.	8e\	.	16.ccc#\LL	.	16.eee\LL	.	.	.	.	.
.	.	.	.	32bb#\K	.	32ddd#\K	.	.	.	.	.
8E\J	.	8e\J	.	16.ccc#\	.	16.eee\	.	.	.	.	.
.	.	.	.	32bb#\JJk	.	32ddd#\JJk	.	.	.	.	.
=62	=62	=62	=62	=62	=62	=62	=62	=62	=62	=62	=62
8E\	.	8e\	.	8ccc#\	.	8eee\	.	2ryy	2ryy	2ryy	2ryy
8r	.	8r	.	8r	.	8r	.	.	.	.	.
4r	.	4r	.	8r	.	8r	p	.	.	.	.
.	.	.	.	16.a/LL	p	16.cc#\LL	.	.	.	.	.
.	.	.	.	32b/JJk	.	32dd\JJk	.	.	.	.	.
=63	=63	=63	=63	=63	=63	=63	=63	=63	=63	=63	=63
!	!LO:DY:t=pn	!	!LO:DY:t=pn	!	!	!	!	!	!	!	!
8E\	p	8e\	p	8cc#\	.	8ee\L	.	2ryy	2ryy	2ryy	2ryy
8r	.	8r	.	16.a/LL	.	16cc#\L	.	.	.	.	.
.	.	.	.	.	.	16dd\JJ	.	.	.	.	.
.	.	.	.	32b/JJk	.	.	.	.	.	.	.
.	.	.	.	8qqdd/	.	8qqff#/	.	.	.	.	.
8E\	.	8e\	.	8cc#/L	.	8ee\L	.	.	.	.	.
8r	.	8r	.	16b/L	.	16dd\L	.	.	.	.	.
.	.	.	.	16a#X/JJ	.	16cc#\JJ	.	.	.	.	.
!LO:LB:g=original	!	!	!	!	!	!	!	!	!	!	!
=64	=64	=64	=64	=64	=64	=64	=64	=64	=64	=64	=64
.	.	.	.	.	.	8qqcc#/	.	.	.	.	.
4E\	.	4e\	.	4b\	.	4dd\	.	2ryy	2ryy	2ryy	2ryy
4r	.	4r	.	4r	.	4r	.	.	.	.	.
=65	=65	=65	=65	=65	=65	=65	=65	=65	=65	=65	=65
!	!LO:DY:t=for	!	!LO:DY:t=for	!	!	!	!	!	!	!	!
8E\L	f	8e\L	f	16.bb\LL	f	16.ddd\LL	f	2ryy	2ryy	2ryy	2ryy
.	.	.	.	32aa#X\K	.	32ccc#\K	.	.	.	.	.
8E\	.	8e\	.	16.bb\	.	16.ddd\	.	.	.	.	.
.	.	.	.	32aa#\JJk	.	32ccc#\JJk	.	.	.	.	.
8E\	.	8e\	.	16.bb\LL	.	16.ddd\LL	.	.	.	.	.
.	.	.	.	32aa#\K	.	32ccc#\K	.	.	.	.	.
8E\J	.	8e\J	.	16.bb\	.	16.ddd\	.	.	.	.	.
.	.	.	.	32aa#\JJk	.	32ccc#\JJk	.	.	.	.	.
!	!	!	!	!LO:LB:g=original	!	!	!	!	!	!	!
=66	=66	=66	=66	=66	=66	=66	=66	=66	=66	=66	=66
8E\	.	8e\	.	8bb\	.	8ddd\	.	2ryy	2ryy	2ryy	2ryy
8r	.	8r	.	8r	.	8r	.	.	.	.	.
4r	.	4r	.	8r	.	8r	p	.	.	.	.
.	.	.	.	16.g#/LL	p	16.b\LL	.	.	.	.	.
.	.	.	.	32a/JJk	.	32cc#\JJk	.	.	.	.	.
=67	=67	=67	=67	=67	=67	=67	=67	=67	=67	=67	=67
!	!LO:DY:t=pn	!	!LO:DY:t=pn	!	!	!	!	!	!	!	!
8E\	p	8e\	p	8b\	.	8dd\	.	2ryy	2ryy	2ryy	2ryy
8r	.	8r	.	16.g#/LL	.	16.b\LL	.	.	.	.	.
.	.	.	.	32a/JJk	.	32cc#\JJk	.	.	.	.	.
.	.	.	.	8qqcc#/	.	8qqee/	.	.	.	.	.
8E\	.	8e\	.	8b/L	.	8dd\L	.	.	.	.	.
8r	.	8r	.	16a/L	.	16cc#\L	.	.	.	.	.
.	.	.	.	16g#/JJ	.	16b\JJ	.	.	.	.	.
!	!	!	!	!	!	!LO:LB:g=original	!	!	!	!	!
=68	=68	=68	=68	=68	=68	=68	=68	=68	=68	=68	=68
2AA/	.	2A/	.	4.a/	.	8cc#\	.	2ryy	2ryy	2ryy	2ryy
.	.	.	.	.	.	8r	.	.	.	.	.
.	.	.	.	.	.	(16cc#\LL	.	.	.	.	.
.	.	.	.	.	.	16dd\	.	.	.	.	.
.	.	.	.	8gn/	.	16ee\	.	.	.	.	.
.	.	.	.	.	.	16ee\JJ)	.	.	.	.	.
=69	=69	=69	=69	=69	=69	=69	=69	=69	=69	=69	=69
!	!	!	!	!	!	!LO:TX:t=P:problem:mixed beam	!	!	!	!	!
(4d\	.	4A/	.	2f#/	.	(>8ee\L	.	2ryy	2ryy	2ryy	2ryy
.	.	.	.	.	.	8f#/J)	.	.	.	.	.
4B\)	.	4d/	.	.	.	(16b\LL	.	.	.	.	.
.	.	.	.	.	.	16cc#\	.	.	.	.	.
.	.	.	.	.	.	16dd\	.	.	.	.	.
.	.	.	.	.	.	16dd\JJ)	.	.	.	.	.
=70	=70	=70	=70	=70	=70	=70	=70	=70	=70	=70	=70
!	!	!	!	!	!	!LO:TX:t=P:problem:mixed beam	!	!	!	!	!
(4G#\	.	4B/	.	2e/	.	(>8dd\L	.	2ryy	2ryy	2ryy	2ryy
.	.	.	.	.	.	8e/J)	.	.	.	.	.
4A\)	.	4A/	.	.	.	(16a\LL	.	.	.	.	.
.	.	.	.	.	.	16b\	.	.	.	.	.
.	.	.	.	.	.	16cc#\	.	.	.	.	.
.	.	.	.	.	.	16cc#\JJ)	.	.	.	.	.
=71	=71	=71	=71	=71	=71	=71	=71	=71	=71	=71	=71
4D\	.	4d\	.	8.f#/L	.	(16cc#\LL	.	2ryy	2ryy	2ryy	2ryy
.	.	.	.	.	.	16b\	.	.	.	.	.
.	.	.	.	.	.	16dd\	.	.	.	.	.
.	.	.	.	16d/Jk	.	16b\JJ	.	.	.	.	.
4E\	.	4e\	.	8c#/L	.	8a/L	.	.	.	.	.
.	.	.	.	8B/J	.	8g#/J)	.	.	.	.	.
=72	=72	=72	=72	=72	=72	=72	=72	=72	=72	=72	=72
2A\	.	2A/	.	4.a/	.	8a/	.	2ryy	2ryy	2ryy	2ryy
.	.	.	.	.	.	8r	.	.	.	.	.
.	.	.	.	.	.	(16cc#\LL	.	.	.	.	.
.	.	.	.	.	.	16dd\	.	.	.	.	.
!	!	!	!	!LO:TX:b:t=P:problem:kasownik pod nutą	!	!	!	!	!	!	!
.	.	.	.	(8gn/	.	16ee\	.	.	.	.	.
.	.	.	.	.	.	16ee\JJ)	.	.	.	.	.
!	!	!LO:LB:g=original	!	!	!	!	!	!	!	!	!
=73	=73	=73	=73	=73	=73	=73	=73	=73	=73	=73	=73
!	!	!	!	!	!	!LO:TX:t=P:problem:mixed beam	!	!	!	!	!
(4d\	.	(4G#/	.	2f#/	.	(>8ee\L	.	2ryy	2ryy	2ryy	2ryy
.	.	.	.	.	.	8f#/J)	.	.	.	.	.
4B\)	.	4d/)	.	.	.	(16b\LL	.	.	.	.	.
.	.	.	.	.	.	16cc#\	.	.	.	.	.
.	.	.	.	.	.	16dd\	.	.	.	.	.
.	.	.	.	.	.	16dd\JJ)	.	.	.	.	.
=74	=74	=74	=74	=74	=74	=74	=74	=74	=74	=74	=74
!	!	!	!	!	!	!LO:TX:t=P:problem:mixed beam	!	!	!	!	!
(4G#\	.	(4B/	.	2e/)	.	(>8dd\L	.	2ryy	2ryy	2ryy	2ryy
.	.	.	.	.	.	8e/J)	.	.	.	.	.
4A\)	.	4A/)	.	.	.	(16a\LL	.	.	.	.	.
.	.	.	.	.	.	16b\	.	.	.	.	.
.	.	.	.	.	.	16cc#\	.	.	.	.	.
.	.	.	.	.	.	16cc#\JJ)	.	.	.	.	.
=75	=75	=75	=75	=75	=75	=75	=75	=75	=75	=75	=75
(4D\	.	4d\	.	8.f#/L	.	(16cc#\LL	.	2ryy	2ryy	2ryy	2ryy
.	.	.	.	.	.	16b\	.	.	.	.	.
.	.	.	.	.	.	16dd\	.	.	.	.	.
.	.	.	.	16d/Jk	.	16b\JJ)	.	.	.	.	.
4E\)	.	4e\	.	8c#/L	.	8a/L	.	.	.	.	.
.	.	.	.	8B/J	.	8g#/J	.	.	.	.	.
=76	=76	=76	=76	=76	=76	=76	=76	=76	=76	=76	=76
2AA/	.	4c#/	.	4e/	.	16.a\LL	.	2ryy	2ryy	2ryy	2ryy
.	.	.	.	.	.	32cc#\K	.	.	.	.	.
.	.	.	.	.	.	16.ee\	.	.	.	.	.
.	.	.	.	.	.	32cc#\JJk	.	.	.	.	.
.	.	4B/	.	4d/	.	16.dd/LL	.	.	.	.	.
.	.	.	.	.	.	32b/K	.	.	.	.	.
.	.	.	.	.	.	16.g#/	.	.	.	.	.
.	.	.	.	.	.	32e/JJk	.	.	.	.	.
=77	=77	=77	=77	=77	=77	=77	=77	=77	=77	=77	=77
2AA/	.	4e\	.	4c#/	.	16.a\LL	.	2ryy	2ryy	2ryy	2ryy
.	.	.	.	.	.	32cc#\K	.	.	.	.	.
.	.	.	.	.	.	16.ee\	.	.	.	.	.
.	.	.	.	.	.	32cc#\JJk	.	.	.	.	.
!	!	!	!	!	!	!LO:LB:g=original	!	!	!	!	!
.	.	4d\	.	4B/	.	16.dd/LL	.	.	.	.	.
.	.	.	.	.	.	32b/K	.	.	.	.	.
.	.	.	.	.	.	16.g#/	.	.	.	.	.
.	.	.	.	.	.	32e/JJk	.	.	.	.	.
=78	=78	=78	=78	=78	=78	=78	=78	=78	=78	=78	=78
!	!LO:DY:t=for	!	!LO:DY:rj:t=for	!	!	!	!	!	!	!	!
8AA/L	f	8c#\L	f	8A/	.	8a/	.	2ryy	2ryy	2ryy	2ryy
8C#/	.	8c#\	.	16.aaLL 16.a/	.	16.aaLL 16.a/	.	.	.	.	.
.	.	.	.	32ee/JJk	.	32ee/JJk	.	.	.	.	.
8D/	.	8d\	.	8ff# 8a/	.	8ff# 8a/	.	.	.	.	.
8F#/J	.	8f#\J	.	16.aaLL 16.a/	.	16.aaLL 16.a/	.	.	.	.	.
.	.	.	.	32ee/JJk	.	32dd/JJk	.	.	.	.	.
!LO:LB:g=original	!	!	!	!LO:LB:g=original	!	!	!	!	!	!	!
=79	=79	=79	=79	=79	=79	=79	=79	=79	=79	=79	=79
*	*	*	*	*^	*	*^	*	*	*	*	*
8E\L	.	8e\L	.	16.cc#\LL	4.ryy	.	16.cc#\LL	4.ryy	.	2ryy	2ryy	2ryy	2ryy
.	.	.	.	32ee\K	.	.	32ee\K	.	.	.	.	.	.
8E\	.	8e\	.	16.aa\	.	.	16.aa\	.	.	.	.	.	.
.	.	.	.	32cc#\JJk	.	.	32cc#\JJk	.	.	.	.	.	.
8E\	.	8e\	.	8b\L	.	.	8b\L	.	.	.	.	.	.
8E\J	.	8e\J	.	8g#\J	8ee 8b/	.	8e\J	8gg# 8b/	.	.	.	.	.
*	*	*Xtremolo	*	*	*	*	*	*	*	*	*	*	*
*	*	*	*	*	*	*	*v	*v	*	*	*	*	*
=80	=80	=80	=80	=80	=80	=80	=80	=80	=80	=80	=80	=80
8AA/L	.	8A/	.	8ee 8cc#/	8a\	.	8aa 8cc# 8e/	.	2ryy	2ryy	2ryy	2ryy
8C#/	.	4a\	.	16aaLL 16a/	8ryy	.	16.aaLL 16.a/	.	.	.	.	.
.	.	.	.	16ee/JJ	.	.	.	.	.	.	.	.
.	.	.	.	.	.	.	32ee/JJk	.	.	.	.	.
8D/	.	.	.	8ff# 8a/	4ryy	.	8ff# 8a/	.	.	.	.	.
8F#/J	.	8a\	.	16aaLL 16a/	.	.	16.aaLL 16.a/	.	.	.	.	.
.	.	.	.	16dd/JJ	.	.	.	.	.	.	.	.
.	.	.	.	.	.	.	32dd/JJk	.	.	.	.	.
=81	=81	=81	=81	=81	=81	=81	=81	=81	=81	=81	=81	=81
*	*	*	*	*	*	*	*^	*	*	*	*	*
8E\L	.	8a\L	.	16.cc#\LL	4.ryy	.	16.cc#\LL	4.ryy	.	2ryy	2ryy	2ryy	2ryy
.	.	.	.	32ee\K	.	.	32ee\K	.	.	.	.	.	.
8E\	.	8a\	.	16.aa\	.	.	16.aa\	.	.	.	.	.	.
.	.	.	.	32cc#\JJk	.	.	32cc#\JJk	.	.	.	.	.	.
8E\	.	8g#\	.	8b\L	.	.	8b\L	.	.	.	.	.	.
8E\J	.	8e\J	.	8g#\J	8ee 8b/	.	8e\J	8gg# 8b/	.	.	.	.	.
*Xtremolo	*	*	*	*	*	*	*	*	*	*	*	*	*
*	*	*	*	*v	*v	*	*	*	*	*	*	*	*
*	*	*	*	*	*	*v	*v	*	*	*	*	*
=82	=82	=82	=82	=82	=82	=82	=82	=82	=82	=82	=82
8AA/	.	8A/	.	8aa 8cc# 8e/	.	8aa 8cc# 8e/	.	2ryy	2ryy	2ryy	2ryy
16.AA/LL	.	16.A/LL	.	16.A/LL	.	16.A/LL	.	.	.	.	.
32GG#/JJk	.	32G#/JJk	.	32B/JJk	.	32G#/JJk	.	.	.	.	.
16.AA/LL	.	16.A/LL	.	16.A/LL	.	16.A/LL	.	.	.	.	.
32GG#/K	.	32G#/K	.	32G#/K	.	32G#/K	.	.	.	.	.
16.AA/	.	16.A/	.	16.A/	.	16.A/	.	.	.	.	.
32GG#/JJk	.	32G#/JJk	.	32G#/JJk	.	32G#/JJk	.	.	.	.	.
=83	=83	=83	=83	=83	=83	=83	=83	=83	=83	=83	=83
8AA/	.	8A/	.	8A/	.	8A/	.	2ryy	2ryy	2ryy	2ryy
16.AA/LL	.	16.A/LL	.	16.A/LL	.	16.A/LL	.	.	.	.	.
32GG#/JJk	.	32G#/JJk	.	32G#/JJk	.	32G#/	.	.	.	.	.
16.AA/LL	.	16.A/LL	.	16.A/LL	.	16.A/	.	.	.	.	.
32GG#/K	.	32G#/K	.	32G#/K	.	32G#/JJK	.	.	.	.	.
16.AA/	.	16.A/	.	16.A/	.	16.A/LL	.	.	.	.	.
32GG#/JJk	.	32G#/JJk	.	32G#/JJk	.	32G#/JJk	.	.	.	.	.
=84	=84	=84	=84	=84	=84	=84	=84	=84	=84	=84	=84
8AA/	.	8A/	.	8A/	.	8A/	.	2ryy	2ryy	2ryy	2ryy
8r	.	8r	.	8r	.	8r	.	.	.	.	.
8AA/	.	8A/	.	8A/	.	8A/	.	.	.	.	.
8r	.	8r	.	8r	.	8r	.	.	.	.	.
=85	=85	=85	=85	=85	=85	=85	=85	=85	=85	=85	=85
2AA/	.	2A/	.	2A/	.	2A/	.	2ryy	2ryy	2ryy	2ryy
==	==	==	==	==	==	==	==	==	==	==	==
*-	*-	*-	*-	*-	*-	*-	*-	*-	*-	*-	*-
!!!system-decoration: [g1][g2][g3]s8
!!!RDF**kern: > = above
!!!ENC: Marta Lawrence
!!!END: 2020-10-24
!!!ENC: Tomasz Grochalski
!!!END: 2020-06-04
